images/dislike-filled.svg

<!DOCTYPE svg PUBLIC "-//W3C//DTD SVG 1.1//EN" "http://www.w3.org/Graphics/SVG/1.1/DTD/svg11.dtd">
<!-- Uploaded to: SVG Repo, www.svgrepo.com, Transformed by: SVG Repo Mixer Tools -->
<svg width="800px" height="800px" viewBox="0 0 24 24" fill="none" xmlns="http://www.w3.org/2000/svg">
<g id="SVGRepo_bgCarrier" stroke-width="0"/>
<g id="SVGRepo_tracerCarrier" stroke-linecap="round" stroke-linejoin="round"/>
<g id="SVGRepo_iconCarrier"> <path opacity="0.15" fill-rule="evenodd" clip-rule="evenodd" d="M8 14V4H17.3604C18.3138 4 19.1346 4.67292 19.3216 5.60777L20.5216 11.6078C20.7691 12.8453 19.8225 14 18.5604 14H14L16.4258 17.6386C17.1929 18.7894 16.5885 20.3529 15.2467 20.6883L15.1992 20.7002C14.4642 20.8839 13.6886 20.6367 13.1956 20.0615L8 14Z" fill="#a30000"/> <path d="M8 14V4M8 14L4 14V4.00002L8 4M8 14L13.1956 20.0615C13.6886 20.6367 14.4642 20.884 15.1992 20.7002L15.2467 20.6883C16.5885 20.3529 17.1929 18.7894 16.4258 17.6387L14 14H18.5604C19.8225 14 20.7691 12.8454 20.5216 11.6078L19.3216 5.60779C19.1346 4.67294 18.3138 4.00002 17.3604 4.00002L8 4" stroke="#a30000" stroke-width="1.5" stroke-linecap="round" stroke-linejoin="round"/> </g>
</svg>

<svg width="800" height="800" viewBox="0 0 24 24" fill="none" xmlns="http://www.w3.org/2000/svg"><path opacity=".15" fill-rule="evenodd" clip-rule="evenodd" d="M8 14V4h9.36a2 2 0 0 1 1.962 1.608l1.2 6A2 2 0 0 1 18.56 14H14l2.426 3.639a2 2 0 0 1-1.18 3.05l-.047.011a2 2 0 0 1-2.003-.639L8 14Z" fill="#a30000"/><path d="M8 14V4m0 10H4V4h4m0 10 5.196 6.061a2 2 0 0 0 2.003.64l.048-.013a2 2 0 0 0 1.179-3.05L14 14h4.56a2 2 0 0 0 1.962-2.392l-1.2-6A2 2 0 0 0 17.36 4H8" stroke="#a30000" stroke-width="1.5" stroke-linecap="round" stroke-linejoin="round"/></svg>
